X:1
T:Title
%%score { ( 1 3 5 ) | ( 2 4 ) }
L:1/8
M:4/4
K:Eb
V:1 treble nm="Grand Piano"
V:3 treble 
V:5 treble 
V:2 bass 
V:4 bass 
V:1
 z4 z2 z[Q:1/4=92] B, | E>D E>D E3 F | G>_G =G>_G =G3 [FA] | %3
 [GB]>[GB] [GB]>[GB] [Ac]>[GB] [FA]>[EG] | [EG]2 [DF]2 [DF]3 B, |[M:7/8] E>DE>D E3 |[M:1/8] F | %7
[M:3/4] G>F G>A [GB]2 |[M:1/4] [GB]2 |[M:4/4] c2 e2 B3 A |[M:7/8] G>G[DF]>[DF] E3 |[M:1/8] [Ge] | %12
[M:4/4] A2 z2 z2 [FA]2 | [GB]4 z4 | =A>A A>A A>G F>c | B6 D2 | E>D E>D E3 F | %17
[M:3/4] G>F G>A [GB]2 |[M:1/4] [GB]2 |[M:4/4] c2 e2 B3 A | %20
[M:15/8] G>G[DF]-[DF]/[DF]/ E2- E z2 z6 |] %21
V:2
 z4 z2 z B,, | [E,G,B,]>[E,F,B,] [E,G,B,]>[E,F,B,] [E,G,B,]3 [E,A,B,] | %2
 [E,B,E]>[E,=A,E] [E,B,E]>[E,A,E] [E,B,E]3 [E,B,] | %3
 [E,E]>[E,E] [E,E]>[E,E] [E,E]>[E,E] [D,B,]>[E,B,] | [B,,B,]2 [B,,B,]2 [B,,B,]3 [D,A,] | %5
[M:7/8] [E,G,B,]>[E,F,B,][E,G,B,]>[E,F,B,] [E,G,B,]3 |[M:1/8] [E,A,B,] | %7
[M:3/4] [E,B,E]>[A,B,D] [G,B,E]>[F,B,F] [E,E]2 |[M:1/4] [E,E]2 | %9
[M:4/4][K:treble] [A,EA]2 [A,CA]2 [G,E]3 [A,CF] | %10
[M:7/8] [B,E]>[K:bass][B,E][B,,A,]>[B,,A,] [E,G,]3 |[M:1/8] [E,B,] | %12
[M:4/4] [F,B,]2 B,,2 z z/[K:treble] c/[K:bass] z z/ A/ | E,2 z F [E,B,E]2 [G,B,E]2 | %14
 [F,CE]>[F,CE] [F,CE]>[F,CE] [F,CE]2 [F,=A,E]2 | [B,,B,]2 [A,B,]2 [G,B,]2 [F,A,]2 | %16
 [E,G,B,]>[E,F,B,] [E,G,B,]>[E,F,B,] [E,G,B,]3 [E,A,B,] | %17
[M:3/4] [E,B,E]>[A,B,D] [G,B,E]>[F,B,F] [E,E]2 |[M:1/4] [E,E]2 | %19
[M:4/4][K:treble] [A,EA]2 [A,CA]2 [G,E]3 [A,CF] | %20
[M:15/8] [B,E]>[K:bass][B,E][B,,A,]-[B,,A,]/[B,,A,]/ [E,G,]2- [E,G,] z2 z6 |] %21
V:3
 x8 | x8 | x8 | x8 | x8 |[M:7/8] x7 |[M:1/8] x |[M:3/4] x6 |[M:1/4] x2 |[M:4/4] x8 |[M:7/8] x7 | %11
[M:1/8] x |[M:4/4] d2- [B,Ad-]2 [B,Ad]2 D->[Dc] | E2 z A G2 B2 | x8 | D2 F2 E2 z B, | x8 | %17
[M:3/4] x6 |[M:1/4] x2 |[M:4/4] x8 |[M:15/8] x15 |] %21
V:4
 x8 | x8 | x8 | x8 | x8 |[M:7/8] x7 |[M:1/8] x |[M:3/4] x6 |[M:1/4] x2 |[M:4/4][K:treble] x8 | %10
[M:7/8] x3/2[K:bass] x11/2 |[M:1/8] x |[M:4/4] z4 F,2[K:treble][K:bass] B,,2 | z2 B,,2 z4 | x8 | %15
 x8 | x8 |[M:3/4] x6 |[M:1/4] x2 |[M:4/4][K:treble] x8 |[M:15/8] x3/2[K:bass] x27/2 |] %21
V:5
 x8 | x8 | x8 | x8 | x8 |[M:7/8] x7 |[M:1/8] x |[M:3/4] x6 |[M:1/4] x2 |[M:4/4] x8 |[M:7/8] x7 | %11
[M:1/8] x |[M:4/4] x8 | z2 E2 z4 | x8 | x8 | x8 |[M:3/4] x6 |[M:1/4] x2 |[M:4/4] x8 | %20
[M:15/8] x15 |] %21

